symbols/web/6k_plus/materialsymbolsrounded/6k_plus_wght200_20px.svg

<svg xmlns="http://www.w3.org/2000/svg" height="20" width="20"><path d="M14.167 11.542q.145 0 .239-.084.094-.083.094-.208v-.938h.938q.124 0 .218-.093.094-.094.094-.219t-.083-.219q-.084-.093-.209-.093H14.5V8.75q0-.125-.094-.208-.094-.084-.218-.084-.146 0-.25.084-.105.083-.105.208v.938h-.937q-.125 0-.219.093-.094.094-.094.219t.094.219q.094.093.198.093h.958v.938q0 .125.105.208.104.084.229.084Zm-4.209.687q.146 0 .261-.114.114-.115.114-.282v-1.604l1.792 1.875q.063.063.125.094t.104.031q.271 0 .365-.208.093-.209-.073-.417l-1.542-1.646 1.563-1.604q.166-.166.083-.385t-.354-.219q-.084 0-.146.042-.062.041-.104.083l-1.813 1.854V8.104q0-.146-.104-.25-.104-.104-.271-.104-.146 0-.26.115-.115.114-.115.26v3.729q0 .167.105.271.104.104.27.104Zm-3.937 0h1.833q.271 0 .448-.187.177-.188.177-.459v-1.25q0-.271-.177-.458t-.469-.187H6.146V8.542h1.958q.167 0 .271-.115.104-.115.104-.281 0-.167-.104-.281-.104-.115-.292-.115H6.021q-.271 0-.469.188-.198.187-.198.479v3.166q0 .271.198.459.198.187.469.187Zm.125-.646v-1.271h1.583v1.271Zm-1.375 5.084q-.625 0-1.031-.407-.407-.406-.407-1.031V4.771q0-.625.407-1.031.406-.407 1.031-.407h10.458q.625 0 1.031.407.407.406.407 1.031v10.458q0 .625-.407 1.031-.406.407-1.031.407Zm0-.917h10.458q.229 0 .375-.146t.146-.375V4.771q0-.229-.146-.375t-.375-.146H4.771q-.229 0-.375.146t-.146.375v10.458q0 .229.146.375t.375.146ZM4.25 4.25V15.75 4.25Z"/></svg>

<svg xmlns="http://www.w3.org/2000/svg" height="20" width="20"><path d="M14.167 11.542Q14.312 11.542 14.406 11.458Q14.5 11.375 14.5 11.25V10.312H15.438Q15.562 10.312 15.656 10.219Q15.75 10.125 15.75 10Q15.75 9.875 15.667 9.781Q15.583 9.688 15.458 9.688H14.5V8.75Q14.5 8.625 14.406 8.542Q14.312 8.458 14.188 8.458Q14.042 8.458 13.938 8.542Q13.833 8.625 13.833 8.75V9.688H12.896Q12.771 9.688 12.677 9.781Q12.583 9.875 12.583 10Q12.583 10.125 12.677 10.219Q12.771 10.312 12.875 10.312H13.833V11.25Q13.833 11.375 13.938 11.458Q14.042 11.542 14.167 11.542ZM9.958 12.229Q10.104 12.229 10.219 12.115Q10.333 12 10.333 11.833V10.229L12.125 12.104Q12.188 12.167 12.25 12.198Q12.312 12.229 12.354 12.229Q12.625 12.229 12.719 12.021Q12.812 11.812 12.646 11.604L11.104 9.958L12.667 8.354Q12.833 8.188 12.75 7.969Q12.667 7.75 12.396 7.75Q12.312 7.75 12.25 7.792Q12.188 7.833 12.146 7.875L10.333 9.729V8.104Q10.333 7.958 10.229 7.854Q10.125 7.75 9.958 7.75Q9.812 7.75 9.698 7.865Q9.583 7.979 9.583 8.125V11.854Q9.583 12.021 9.688 12.125Q9.792 12.229 9.958 12.229ZM6.021 12.229H7.854Q8.125 12.229 8.302 12.042Q8.479 11.854 8.479 11.583V10.333Q8.479 10.062 8.302 9.875Q8.125 9.688 7.833 9.688H6.146V8.542H8.104Q8.271 8.542 8.375 8.427Q8.479 8.312 8.479 8.146Q8.479 7.979 8.375 7.865Q8.271 7.75 8.083 7.75H6.021Q5.75 7.75 5.552 7.938Q5.354 8.125 5.354 8.417V11.583Q5.354 11.854 5.552 12.042Q5.75 12.229 6.021 12.229ZM6.146 11.583V10.312H7.729V11.583ZM4.771 16.667Q4.146 16.667 3.74 16.26Q3.333 15.854 3.333 15.229V4.771Q3.333 4.146 3.74 3.74Q4.146 3.333 4.771 3.333H15.229Q15.854 3.333 16.26 3.74Q16.667 4.146 16.667 4.771V15.229Q16.667 15.854 16.26 16.26Q15.854 16.667 15.229 16.667ZM4.771 15.75H15.229Q15.458 15.75 15.604 15.604Q15.75 15.458 15.75 15.229V4.771Q15.75 4.542 15.604 4.396Q15.458 4.25 15.229 4.25H4.771Q4.542 4.25 4.396 4.396Q4.25 4.542 4.25 4.771V15.229Q4.25 15.458 4.396 15.604Q4.542 15.75 4.771 15.75ZM4.25 4.25Q4.25 4.25 4.25 4.396Q4.25 4.542 4.25 4.771V15.229Q4.25 15.458 4.25 15.604Q4.25 15.75 4.25 15.75Q4.25 15.75 4.25 15.604Q4.25 15.458 4.25 15.229V4.771Q4.25 4.542 4.25 4.396Q4.25 4.25 4.25 4.25Z"/></svg>
